manual-assets/community/dde/common/F2.svg

<?xml version="1.0" encoding="UTF-8" standalone="no"?>
<!-- Generator: Adobe Illustrator 18.0.0, SVG Export Plug-In . SVG Version: 6.00 Build 0)  -->

<svg
   xmlns:dc="http://purl.org/dc/elements/1.1/"
   xmlns:cc="http://creativecommons.org/ns#"
   xmlns:rdf="http://www.w3.org/1999/02/22-rdf-syntax-ns#"
   xmlns:svg="http://www.w3.org/2000/svg"
   xmlns="http://www.w3.org/2000/svg"
   xmlns:sodipodi="http://sodipodi.sourceforge.net/DTD/sodipodi-0.dtd"
   xmlns:inkscape="http://www.inkscape.org/namespaces/inkscape"
   version="1.1"
   id="图层_1"
   x="0px"
   y="0px"
   viewBox="0 0 20 20"
   enable-background="new 0 0 20 20"
   xml:space="preserve"
   sodipodi:docname="F2.svg"
   width="20"
   height="20"
   inkscape:version="0.92.1 r15371"><metadata
     id="metadata19"><rdf:RDF><cc:Work
         rdf:about=""><dc:format>image/svg+xml</dc:format><dc:type
           rdf:resource="http://purl.org/dc/dcmitype/StillImage" /><dc:title></dc:title></cc:Work></rdf:RDF></metadata><defs
     id="defs17" /><sodipodi:namedview
     pagecolor="#ffffff"
     bordercolor="#666666"
     borderopacity="1"
     objecttolerance="10"
     gridtolerance="10"
     guidetolerance="10"
     inkscape:pageopacity="0"
     inkscape:pageshadow="2"
     inkscape:window-width="836"
     inkscape:window-height="480"
     id="namedview15"
     showgrid="false"
     fit-margin-top="0"
     fit-margin-left="0"
     fit-margin-right="0"
     fit-margin-bottom="0"
     inkscape:zoom="11.8"
     inkscape:cx="10"
     inkscape:cy="10"
     inkscape:window-x="0"
     inkscape:window-y="0"
     inkscape:window-maximized="0"
     inkscape:current-layer="图层_1" /><g
     id="g12"><path
       d="M 15.7,19.5 H 4.3 C 2.21,19.5 0.5,17.79 0.5,15.7 V 4.3 C 0.5,2.21 2.21,0.5 4.3,0.5 h 11.4 c 2.09,0 3.8,1.71 3.8,3.8 v 11.4 c 0,2.09 -1.71,3.8 -3.8,3.8 z"
       id="path2"
       inkscape:connector-curvature="0"
       style="opacity:0.1;fill:#ffffff" /><path
       stroke-miterlimit="10"
       d="m 15.5,19.5 h -11 c -2.209,0 -4,-1.791 -4,-4 v -11 c 0,-2.209 1.791,-4 4,-4 h 11 c 2.209,0 4,1.791 4,4 v 11 c 0,2.209 -1.791,4 -4,4 z"
       id="path4"
       inkscape:connector-curvature="0"
       style="fill:none;stroke:#cbcbcb;stroke-miterlimit:10" /><g
       id="g8"><path
         d="M 10,6 H 6 v 3 h 3 v 1 H 6 v 4 H 5 V 5 h 5 z"
         id="path6"
         inkscape:connector-curvature="0" /></g><path
       d="m 16,13.974 h -5 v -0.955 l 2.379,-2.557 C 14.035,9.756 14.473,9.197 14.696,8.785 14.917,8.373 15.029,7.947 15.029,7.506 15.029,7.005 14.898,6.621 14.638,6.353 14.378,6.086 13.791,5.952 13.298,5.952 12.567,5.952 12,6.286 11,6.954 V 5.821 c 1,-0.535 1.605,-0.803 2.46,-0.803 0.737,0 1.423,0.214 1.85,0.643 0.426,0.429 0.691,1.006 0.691,1.731 0,0.547 -0.159,1.061 -0.383,1.609 -0.43,1.05 -3.274,3.972 -3.274,3.972 H 16 Z"
       id="path10"
       inkscape:connector-curvature="0" /></g></svg>

<?xml version="1.0" encoding="UTF-8"?>
<svg width="20px" height="20px" viewBox="0 0 20 20" version="1.1" xmlns="http://www.w3.org/2000/svg" xmlns:xlink="http://www.w3.org/1999/xlink">
    <!-- Generator: Sketch 64 (93537) - https://sketch.com -->
    <title>F7</title>
    <desc>Created with Sketch.</desc>
    <g id="页面-1" stroke="none" stroke-width="1" fill="none" fill-rule="evenodd">
        <path d="M15.7,19.5 L4.3,19.5 C2.21,19.5 0.5,17.79 0.5,15.7 L0.5,4.3 C0.5,2.21 2.21,0.5 4.3,0.5 L15.7,0.5 C17.79,0.5 19.5,2.21 19.5,4.3 L19.5,15.7 C19.5,17.79 17.79,19.5 15.7,19.5 Z" id="路径" fill="#FFFFFF" fill-rule="nonzero"></path>
        <path d="M15.5,19.5 L4.5,19.5 C2.291,19.5 0.5,17.709 0.5,15.5 L0.5,4.5 C0.5,2.291 2.291,0.5 4.5,0.5 L15.5,0.5 C17.709,0.5 19.5,2.291 19.5,4.5 L19.5,15.5 C19.5,17.709 17.709,19.5 15.5,19.5 Z" id="路径" stroke="#CBCBCB"></path>
        <g id="F1"></g>
        <g id="F2" fill="#000000" fill-rule="nonzero">
            <g id="g8" transform="translate(5.000000, 5.000000)">
                <polygon id="path6" points="5 1 1 1 1 4 4 4 4 5 1 5 1 9 0 9 0 0 5 0"></polygon>
            </g>
            <path d="M16,13.974 L11,13.974 L11,13.019 L13.379,10.462 C14.035,9.756 14.473,9.197 14.696,8.785 C14.917,8.373 15.029,7.947 15.029,7.506 C15.029,7.005 14.898,6.621 14.638,6.353 C14.378,6.086 13.791,5.952 13.298,5.952 C12.567,5.952 12,6.286 11,6.954 L11,5.821 C12,5.286 12.605,5.018 13.46,5.018 C14.197,5.018 14.883,5.232 15.31,5.661 C15.736,6.09 16.001,6.667 16.001,7.392 C16.001,7.939 15.842,8.453 15.618,9.001 C15.188,10.051 12.344,12.973 12.344,12.973 L16,12.973 L16,13.974 Z" id="path10"></path>
        </g>
    </g>
</svg>
